X: 110867
T: Kane's
T: Off In the Morning
S: "First Collection of Traditional Irish Music" (M.Mulvihill)
Z: B.Black
L: 1/8
M: 4/4
R: reel
K: G
G3 B dB (3BAB|gBfB edBG|c2 ec B2 dB|Adce dcBA|
G3 B dB (3BAB|gBfB edBG|c2 ec B2 dB|ADFA G2 Bd||
gd (3dcd gdef|gd (3ddd gfed|c2 ec B2 dB|Adce dcBA|
G3 B dB (3BAB|gBfB edBG|c2 ec B2 dB|ADFA G2 Bd||
